X:1
T:Gute Nacht
T:I - Gute Nacht
T:Franz Schubert (1797-1828)
T:Du cycle de lied Winterreise
C:Franz Schubert
%%score 1 ( 2 3 )
L:1/8
Q:1/8=100
M:2/4
K:F
V:1 bass nm="Violoncello" snm="Vc."
V:2 treble-8 nm="Classical Guitar" snm="Guit."
V:3 treble-8 
V:1
 z4 | z4 | z4 | z4 | z4 | z4 |: z3 F | ED A,F, | E,>F, E,D | A,>F, A,/F,/E,/F,/ | D,2 z F | %11
 ED A,F, | E,>F, E,D | A,>F, A,/F,/E,/F,/ | D,2!p! z C, | F,F, F,F, | G,>A, G,A, | %17
 C/B,/A, G,A,/B,/ | A,2 z F, | B,B, B,B, | C>D CD | F/_E/D C>D | B,2 z2 | z4 | z2 z D | B,>G, E,D | %26
 A,>F, D,F,/G,/ | A,A, A,=B,/C/ | D2 z D | B,>G, E,D | A,>F, D,F,/G,/ |"_VII" A,A, A,A, | D,2 z2 | %33
 z4 | z4 | z4 | z4 | z4 :| z2!mf! z F | ED A,F, | E,>G, B,D | A,"_Harm."F,/G,/ A,=B,/^C/ | D2 z F | %43
 ED A,F, | E,>G, B,D | A,"_Harm."F,/G,/!>(! A,=B,/^C/!>)! | D2!p! z E, | F,F, F,F, | G,>A, G,A, | %49
 C/B,/A, G,A,/B,/ | A,2 z F, | B,B, B,B, | C>D CD | F/_E/D C>D | B,2 z2 | z4 | z2 z D | B,>G, E,D | %58
 A,>F, D,A, | A,D E^C | D2 z D | B,>G, E,D | A,>F, D,A, | A,F E^C | D2 z2 | z4 | z4 | z4 | z4 | %69
 z4 ||[K:D] z2 z F | ED A,F, | E,>F, E,B, | D>F, A,/F,/E,/F,/ | D,2 z F | ED A,F, | E,>F, E,B, | %77
 D>F, A,/F,/E,/F,/ || D,2 z D, | G,G, G,F,/G,/ | A,>B, A,B, | D/=C/B, A,B,/C/ | B,2 z A, | %83
 DD DC/D/ | E>F EF | CD A,>G, | F,2 z2 | z4 | z2 z D | B,>^G, E,D | A,>F, D,A, | A,D !>!E>C | %92
 D2 z D | B,>^G, E,D | A,>F, D,A, | A,F EC | D2 z A, | A,=F EC ||[K:F] D2 z2 | z4 | z4 | z4 | z4 | %103
 z4 | z4 |] %105
V:2
!p! ff f[ff'] | [fe'][fd'] [fa]!>!f/>e/ | d2- [Ad]!>!e | d2- [Ad]!>!d' | a2 g/f/Pe/d/ | dd ^cc |: %6
!pp! [FAd][FAd] [FAd][FAd] | [FAd][FAd] [FAd][FAd] | [EBd][EBd] [EBd][EBd] | %9
 [FAd][Af] [FAd][GA^c] | [FAd][FAd] [FAd][FAd] | [FAd][FAd] [FAd][FAd] | [EBd][EBd] [EBd][EBd] | %13
 [FAd][Af] [FAd][GA^c] | [FAd][FAd] [Gc][EB] | AF/G/ [FA][FG=B] | [FGc][FGc] [EGc][Fc] | %17
 [Ec][Fc] [FGc][EGc] | [FAc][FA] [EB][_Ec] | [Fd]B/c/ [DBd][CBe] | [Bcf][Bcf] [Acf][Bf] | %21
 [Af][Bf] [Bcf][cf] | [df][Bd] [Bd]d | e>f e z | a>b a z | e>f e z | a>b a z | %27
 [FA][FAd] [GAe][GA] | [FAd][FA] [FAd][FAf] | e>f e z | a>b a z | [FA][FAf] [GAe][G^c] | %32
!p! d2 f[ff'] | [fe'][fd'] [fa]!>!f/>e/ | d2 A!>!e | d2 A!>!d' | a2 g/f/!<(!Pe/d/!<)! | dd ^cc :| %38
!mf! [FAd][Adf] [Adf][Adf] | [Adf][Adf] [Adf][Adf] | [Bde][Bde] [Bde][Bde] | [Adf]f [Adf]A | %42
 [FAd][Adf] [Adf][Adf] | [Adf][Adf] [Adf][Adf] | [Bde][Bde] [Bde][Bde] | [Adf]f [Adf]A | %46
 [FAd][FAd]!p! [Gc][EB] | AF/G/ [FA][FG=B] | [FGc][FGc] [EGc][Fc] | [Ec][Fc] [FGc][EGc] | %50
 [FAc][FA] [EB][_Ec] | [Fd]B/c/ [DBd][CBe] | [Bcf][Bcf] [Acf][Bf] | [Af][Bf] [Bcf][cf] | %54
 [df][Bd] [Bd]d | e>f e z | a>b a z | e>f e z | a>b aa | aa aa | aA df | e>f e z | a>b aa | aa aa | %64
 af f[ff'] | [fe'][fd'] [fa]f/>e/ | d2 Ae | d2 Ad' | a2 g/f/!>(!Pe/d/!>)! | dd ^cc || %70
[K:D]!pp! [D,FA][D,FAd] [D,FAd][D,FAd] | [D,FAd][D,FAd] [D,FAd][D,FAd] | %72
 [D,EBd][D,EBd] [D,EBd][D,^EBd] | [D,FAd][D,Af] [A,FAe][A,GAc] | [D,FAd][D,FAd] [D,FAd][D,FAd] | %75
 [D,FAd][D,FAd] [D,FAd][D,FAd] | [D,EBd][D,EBd] [D,EBd][D,^EBd] | [D,FAd][D,Af] [A,FAe][A,GAc] || %78
 [D,FAd][D,FAd] [Ed][F=c] | [GB]G/A/ [EB][E^c] | [DGd][DGd] [DAd][B,Gd] | %81
 [A,Fd][B,Gd]/=C/ [DGd][DAd] | [GBd]G/A/ [EB][EAc] | [D,FAd][FAd]/e/ [B,Fdf][B,Ed^g] | %84
 [Adea][Adea] [Adea][Fda] | [ca]/g/[fa]/a/ [dea][cea] | [Ada][FA] [FAd][FAf] | e>f e z | a>b a z | %89
 e>f e z | a>b af | fd ce | dA df | e>f e z | a>b af | fd ce | dd fa | [d=fa][dfa] [ea][cea] || %98
[K:F] [fa][Ddf] [Ddf][D,Fd] | [D,Fd][G,GB] [G,GB][A,FA] | [A,FA][A,FA] [A,EA][^CEA] | %101
 [D,FA]A, A,[A,FA] | [A,FA][A,FA] [A,EA][^CEA] | [D,FA]A, A,D, | D,2 z2 |] %105
V:3
 D,D, D,D, | D,D, D,[D,B^c] | [D,FA]D, D,[G,B^c] | [D,FA]D, D,[Gb] | [A,Af]A, [B,DG][B,DG] | %5
 [A,FA][A,FA] [A,EG][A,EG] |: D,D, D,D, | D,D, D,D, | D,D, D,D, | D,D, A,A, | D,D, D,D, | %11
 D,D, D,D, | D,D, D,D, | D,D, A,A, | D,D, EC | [F,F]F, D,D, | CC CA, | G,A,/B,/ CC | F,4 | %19
 B,[B,F] G,G, | FF FD | CD/_E/ FF, | B,D FB | [G,GB][G,GB] [G,GB][G,GB] | [FAd][FAd] [FAd][FAd] | %25
 [G,GB][G,GB] [G,GB][G,GB] | [FAd][FAd] [FAd][A,FA] | A,A, A,A, | D,D, D,D, | %29
 [G,GB][G,GB] [G,GB][G,GB] | [FAd][FAd] [FAd][A,FA] | A,A, A,A, | [D,FA]D, D,D, | D,D, D,[D,B^c] | %34
 [D,FA]D, D,[G,B^c] | [D,FA]D, D,[Gb] | [A,Af]A, [B,DG][B,DG] | [A,FA][A,FA] [A,EG][A,EG] :| %38
 D,D, D,D, | D,D, D,D, | D,D, D,D, | D,A, A,E | D,D, D,D, | D,D, D,D, | D,D, D,D, | D,A, A,E | %46
 D,D, EC | [F,F]F, D,D, | CC CA, | G,A,/B,/ CC | F,4 | B,[B,F] G,G, | FF FD | CD/_E/ FF, | B,D FB | %55
 [G,GB][G,GB] [G,GB][G,GB] | [FAd][FAd] [FAd][FAd] | [G,GB][G,GB] [G,GB][G,GB] | %58
 [FAd][FAd] [FAd][A,FA] | [A,FA][A,FA] [A,GA][A,EA] | [D,A,D][D,F] [D,FA][D,FA] | %61
 [G,GB][G,GB] [G,GB][G,GB] | [FAd][FAd] [FAd][A,FA] | [A,FA][A,FA] [A,GA][A,EA] | D,D, D,D, | %65
 D,D, D,[D,B^c] | [D,FA]D, D,[G,B^c] | [D,FA]D, D,[Gb] | [A,Af]A, [B,DG][B,DG] | %69
 [A,FA][A,FA] [A,EG][A,EG] ||[K:D] x4 | x4 | x4 | x4 | x4 | x4 | x4 | x4 || x4 | x x x2 | x4 | x4 | %82
 x4 | x4 | x4 | EF/G/ AA, | D,4 | [E^GB][EGB] [EG][DGd] | [A,ce][A,ce] [A,ce][A,ce] | %89
 [E^GB][EGB] [EG][DGd] | [A,ce][A,ce] [A,ce][A,c] | [A,FA][A,FA] [A,GA][A,GA] | %92
 [D,DA][D,F] [D,FA][D,FA] | [E^GB][EGB] [EG][DGd] | [A,ce][A,ce] [A,ce][A,c] | %95
 [A,FA][A,FA] [A,GA][A,GA] | [A,DA][D,FA] [D,Ad][A,d=f] | A,A, A,A, ||[K:F] A, z z2 | x4 | x4 | %101
 x4 | x4 | x4 | x4 |] %105

